X:32
T:Grace Darling. CAM2.[33]
T:Sweet Jenny Jones,aka. CAM2.[33]
B:Anon MS#2, early 19thC, Northumbria, Cocks Coll.
Z:Village Music Project 2016 Steve Mansfield
M:3/4
L:1/8
Q:3/4=60
K:G
d2 | g2 dcBA | (G3 ABG) | c2e2 (ag) | f3e d2 |
g2 d2 B2 | c3d e2 | d2 g2 f2 | g4 :|
|: g2 | b2 g2 b2 | a2 f2 d2 | g2e2 (ag) | f2 e2 d2 |
b2 g2 b2 | a2 f2 d2 | g2 f2 e2 | d3 .e.f.d |
(g2 dc)BA | G2 GABG | cBceab | f3e d2 |
g2 d2 B2 | c3 c d2 | d2 g2 f2 | g4 :|
|: d2 | gfgdBd | GFGBdB | cBceag | fefdef |
gfgdBG | cBcdec | d^cdefd |"_next page missing" g4 :||:g2|zz]

